src/ui/share.svg

<?xml version="1.0" encoding="UTF-8"?><svg xmlns="http://www.w3.org/2000/svg" viewBox="0 0 32 32"><defs><style>.uuid-53454e74-5709-4062-96a0-312800f98575{fill:none;}.uuid-53454e74-5709-4062-96a0-312800f98575,.uuid-3e37e9e2-c0ae-48eb-84bd-46f3e02d24a7{stroke-width:0px;}.uuid-3e37e9e2-c0ae-48eb-84bd-46f3e02d24a7{fill:#151515;}</style></defs><g id="uuid-c610d8d9-39e7-458b-91f2-a0089f0e78ad"><rect class="uuid-53454e74-5709-4062-96a0-312800f98575" x="0" width="32" height="32"/></g><g id="uuid-607db3b2-2c6f-4d63-9aa2-51dba8e0a438"><path class="uuid-3e37e9e2-c0ae-48eb-84bd-46f3e02d24a7" d="M27,22c-1.6481,0-3.1006.8117-4.012,2.0455l-13.2228-6.6115c.1382-.4573.2348-.9323.2348-1.4341,0-.4857-.0914-.9459-.2212-1.3902l13.2388-6.6194c.9133,1.2126,2.351,2.0096,3.9824,2.0096,2.7568,0,5-2.2432,5-5S29.7568,0,27,0s-5,2.2432-5,5c0,.41.0635.8027.1571,1.1843l-13.3137,6.6569c-.9178-1.1145-2.2904-1.8412-3.8434-1.8412-2.7568,0-5,2.2432-5,5s2.2432,5,5,5c1.5363,0,2.8958-.7114,3.8137-1.8053l13.3297,6.6649c-.0865.3679-.1434.7465-.1434,1.1404,0,2.7568,2.2432,5,5,5s5-2.2432,5-5-2.2432-5-5-5ZM27,2c1.6543,0,3,1.3457,3,3s-1.3457,3-3,3-3-1.3457-3-3,1.3457-3,3-3ZM5,19c-1.6543,0-3-1.3457-3-3s1.3457-3,3-3,3,1.3457,3,3-1.3457,3-3,3ZM27,30c-1.6543,0-3-1.3457-3-3s1.3457-3,3-3,3,1.3457,3,3-1.3457,3-3,3Z"/></g></svg>

<svg xmlns="http://www.w3.org/2000/svg" viewBox="0 0 32 32">
  <path d="M0 0h32v32H0z" fill="none"/>
  <path d="M27 22c-1.648 0-3.1.812-4.012 2.046L9.765 17.434A4.93 4.93 0 0 0 10 16c0-.486-.091-.946-.221-1.39l13.239-6.62C23.93 9.203 25.368 10 27 10c2.757 0 5-2.243 5-5s-2.243-5-5-5-5 2.243-5 5c0 .41.064.803.157 1.184L8.843 12.841C7.926 11.727 6.553 11 5 11c-2.757 0-5 2.243-5 5s2.243 5 5 5c1.536 0 2.896-.711 3.814-1.805l13.33 6.665A4.96 4.96 0 0 0 22 27c0 2.757 2.243 5 5 5s5-2.243 5-5-2.243-5-5-5Zm0-20c1.654 0 3 1.346 3 3s-1.346 3-3 3-3-1.346-3-3 1.346-3 3-3ZM5 19c-1.654 0-3-1.346-3-3s1.346-3 3-3 3 1.346 3 3-1.346 3-3 3Zm22 11c-1.654 0-3-1.346-3-3s1.346-3 3-3 3 1.346 3 3-1.346 3-3 3Z" fill="#151515"/>
</svg>
